src/img/Union3.svg

<svg width="50.000000" height="48.780273" viewBox="0 0 50 48.7803" fill="none" xmlns="http://www.w3.org/2000/svg" xmlns:xlink="http://www.w3.org/1999/xlink">
	<desc>
			Created with Pixso.
	</desc>
	<defs/>
	<path id="Union" d="M24.6133 4.23047C30.4072 -1.41016 39.8311 -1.41016 45.625 4.23047C49.9346 8.42578 51.1025 14.5713 48.9409 19.832L48.9385 19.8379C48.1978 21.6016 47.1221 23.2959 45.625 24.7529C41.6797 28.5938 36.0938 29.792 31.0859 28.4443C30.9351 28.4043 30.8027 28.4492 30.729 28.5244L27.561 31.7266C27.165 32.127 26.6255 32.3525 26.0625 32.3525L22.793 32.3525C22.6265 32.3525 22.4917 32.4873 22.4917 32.6533L22.4917 35.0898C22.4917 36.2539 21.5479 37.1973 20.3838 37.1973L17.8159 37.1973C17.6494 37.1973 17.5146 37.332 17.5146 37.499L17.5146 39.9346C17.5146 41.0986 16.5713 42.042 15.4072 42.042L12.8389 42.042C12.6729 42.042 12.5381 42.1768 12.5381 42.3438L12.5381 45.4482C12.5381 46.0449 12.2847 46.6143 11.8413 47.0137L10.4834 48.2373C10.0962 48.5869 9.59375 48.7803 9.07227 48.7803L2.10791 48.7803C0.943848 48.7803 0 47.8359 0 46.6719L0 40.0586C0 39.4893 0.230957 38.9434 0.640137 38.5459L20.7822 19.0107C20.8604 18.9346 20.9097 18.792 20.8594 18.6289C19.3477 13.7129 20.605 8.13184 24.6133 4.23047ZM44.3647 5.52539C39.2725 0.567383 30.9658 0.567383 25.8735 5.52539C22.3599 8.94531 21.27 13.8184 22.5859 18.0977C22.8174 18.8496 22.6494 19.7168 22.04 20.3076L1.89795 39.8428C1.83984 39.8994 1.80664 39.9775 1.80664 40.0586L1.80664 46.6719C1.80664 46.8389 1.94141 46.9736 2.10791 46.9736L9.07227 46.9736C9.14697 46.9736 9.21875 46.9453 9.27393 46.8955L10.6318 45.6719C10.6953 45.6143 10.7314 45.5332 10.7314 45.4482L10.7314 42.3438C10.7314 41.1797 11.6748 40.2354 12.8389 40.2354L15.4072 40.2354C15.5732 40.2354 15.708 40.1006 15.708 39.9346L15.708 37.499C15.708 36.335 16.6519 35.3906 17.8159 35.3906L20.3838 35.3906C20.5503 35.3906 20.6851 35.2559 20.6851 35.0898L20.6851 32.6533C20.6851 31.4893 21.6289 30.5459 22.793 30.5459L26.0625 30.5459C26.1431 30.5459 26.2197 30.5137 26.2764 30.4561L29.4448 27.2539C30.0107 26.6816 30.8271 26.5039 31.5552 26.7002C35.9917 27.8936 40.9082 26.8242 44.3647 23.459C45.6665 22.1914 46.6123 20.708 47.2715 19.1416C49.1519 14.5615 48.1421 9.20215 44.3647 5.52539ZM35.3096 14.3379C33.5854 12.6602 33.5854 9.93848 35.3096 8.26074C37.0332 6.58203 39.8286 6.58203 41.5527 8.26074C43.2769 9.93848 43.2769 12.6602 41.5527 14.3379C39.8286 16.0166 37.0332 16.0166 35.3096 14.3379ZM36.604 9.52051C35.5947 10.5029 35.5947 12.0957 36.604 13.0781C37.6128 14.0605 39.249 14.0605 40.2583 13.0781C41.2671 12.0957 41.2671 10.5029 40.2583 9.52051C39.249 8.53809 37.6128 8.53809 36.604 9.52051ZM24.4727 23.2393C24.8306 22.8916 24.8379 22.3193 24.4902 21.9619C24.1421 21.6045 23.5703 21.5967 23.2129 21.9453L20.9575 24.1406C20.6001 24.4883 20.5923 25.0605 20.9404 25.418C21.2886 25.7754 21.8604 25.7832 22.2178 25.4346L24.4727 23.2393ZM19.4946 28.0859C19.853 27.7393 19.8623 27.167 19.5156 26.8086C19.1685 26.4502 18.5967 26.4404 18.2383 26.7881L4.16309 40.4141C3.80469 40.7617 3.79541 41.333 4.14209 41.6914C4.48926 42.0498 5.06104 42.0596 5.41943 41.7119L19.4946 28.0859Z" fill="#FFFFFF" fill-opacity="1.000000" fill-rule="evenodd"/>
</svg>

<svg width="50" height="48.78" fill="none" xmlns="http://www.w3.org/2000/svg"><path d="M24.613 4.23c5.794-5.64 15.218-5.64 21.012 0 4.31 4.196 5.477 10.341 3.316 15.602l-.003.006c-.74 1.764-1.816 3.458-3.313 4.915-3.945 3.84-9.531 5.039-14.54 3.691a.366.366 0 0 0-.356.08l-3.168 3.203c-.396.4-.936.625-1.498.625h-3.27a.301.301 0 0 0-.301.301v2.437a2.108 2.108 0 0 1-2.108 2.107h-2.568a.301.301 0 0 0-.301.302v2.436a2.107 2.107 0 0 1-2.108 2.107H12.84c-.166 0-.3.135-.3.302v3.104c0 .597-.254 1.166-.698 1.566l-1.358 1.223c-.387.35-.89.543-1.41.543H2.107A2.109 2.109 0 0 1 0 46.672v-6.613c0-.57.231-1.116.64-1.513L20.782 19.01a.376.376 0 0 0 .077-.382c-1.511-4.916-.254-10.497 3.754-14.399Zm19.752 1.295c-5.093-4.958-13.4-4.958-18.492 0-3.513 3.42-4.603 8.293-3.287 12.573.231.752.063 1.619-.546 2.21L1.898 39.843a.302.302 0 0 0-.091.216v6.613c0 .167.134.302.3.302h6.965a.301.301 0 0 0 .202-.078l1.358-1.224a.302.302 0 0 0 .1-.224v-3.104c0-1.164.943-2.109 2.107-2.109h2.568c.166 0 .301-.134.301-.3v-2.436c0-1.164.944-2.108 2.108-2.108h2.568a.301.301 0 0 0 .301-.301v-2.437c0-1.164.944-2.107 2.108-2.107h3.27a.3.3 0 0 0 .213-.09l3.169-3.202a2.17 2.17 0 0 1 2.11-.554c4.437 1.194 9.353.124 12.81-3.241 1.301-1.268 2.247-2.751 2.907-4.317 1.88-4.58.87-9.94-2.907-13.617Zm-9.055 8.813a4.217 4.217 0 0 1 0-6.077c1.723-1.679 4.519-1.679 6.243 0a4.217 4.217 0 0 1 0 6.077c-1.724 1.679-4.52 1.679-6.243 0Zm1.294-4.817a2.468 2.468 0 0 0 0 3.557 2.634 2.634 0 0 0 3.654 0 2.47 2.47 0 0 0 0-3.557 2.634 2.634 0 0 0-3.654 0ZM24.473 23.239a.903.903 0 1 0-1.26-1.294l-2.256 2.196a.903.903 0 1 0 1.26 1.294l2.256-2.196Zm-4.978 4.847a.904.904 0 0 0-1.257-1.298L4.163 40.414a.904.904 0 0 0 1.256 1.298l14.076-13.626Z" fill="#FFF" fill-rule="evenodd"/></svg>
